app/src/assets/coins.svg

<svg width="47" height="47" viewBox="0 0 47 47" fill="none" xmlns="http://www.w3.org/2000/svg">
<circle cx="23.3" cy="23.8075" r="23.1483" fill="#FDEAEC"/>
<ellipse cx="28.1985" cy="14.8841" rx="7.42735" ry="3.24947" fill="#FF5379"/>
<path fill-rule="evenodd" clip-rule="evenodd" d="M35.3183 17.205C34.4054 18.5473 31.5632 19.5261 28.1985 19.5261C24.8337 19.5261 21.9916 18.5473 21.0786 17.205C20.8785 17.4991 20.7711 17.8107 20.7711 18.1332C20.7711 19.9279 24.0965 21.3827 28.1985 21.3827C32.3005 21.3827 35.6258 19.9279 35.6258 18.1332C35.6258 17.8107 35.5184 17.4991 35.3183 17.205Z" fill="#FFAABD" fill-opacity="0.79"/>
<path fill-rule="evenodd" clip-rule="evenodd" d="M35.3183 20.2592C34.4054 21.6015 31.5632 22.5803 28.1985 22.5803C24.8337 22.5803 21.9916 21.6015 21.0786 20.2592C20.8785 20.5533 20.7711 20.8649 20.7711 21.1874C20.7711 22.9821 24.0965 24.4369 28.1985 24.4369C32.3005 24.4369 35.6258 22.9821 35.6258 21.1874C35.6258 20.8649 35.5184 20.5533 35.3183 20.2592Z" fill="#FFAABD" fill-opacity="0.79"/>
<ellipse cx="15.0072" cy="22.1158" rx="7.42735" ry="3.24947" fill="#FF5379"/>
<path fill-rule="evenodd" clip-rule="evenodd" d="M22.1271 24.4365C21.2142 25.7789 18.372 26.7577 15.0073 26.7577C11.6425 26.7577 8.80039 25.7789 7.88741 24.4365C7.68735 24.7307 7.57993 25.0422 7.57993 25.3648C7.57993 27.1594 10.9053 28.6143 15.0073 28.6143C19.1093 28.6143 22.4346 27.1594 22.4346 25.3648C22.4346 25.0422 22.3272 24.7307 22.1271 24.4365Z" fill="#FFAABD" fill-opacity="0.79"/>
<path fill-rule="evenodd" clip-rule="evenodd" d="M22.1271 27.4906C21.2142 28.8329 18.372 29.8118 15.0073 29.8118C11.6425 29.8118 8.80039 28.8329 7.88741 27.4906C7.68735 27.7847 7.57993 28.0963 7.57993 28.4189C7.57993 30.2135 10.9053 31.6683 15.0073 31.6683C19.1093 31.6683 22.4346 30.2135 22.4346 28.4189C22.4346 28.0963 22.3272 27.7847 22.1271 27.4906Z" fill="#FFAABD" fill-opacity="0.79"/>
<ellipse cx="29.0152" cy="26.428" rx="7.42735" ry="3.24947" fill="#FF5379"/>
<path fill-rule="evenodd" clip-rule="evenodd" d="M36.1351 28.7488C35.2221 30.0911 32.38 31.07 29.0152 31.07C25.6505 31.07 22.8084 30.0911 21.8954 28.7488C21.6953 29.0429 21.5879 29.3545 21.5879 29.6771C21.5879 31.4717 24.9132 32.9265 29.0152 32.9265C33.1173 32.9265 36.4426 31.4717 36.4426 29.6771C36.4426 29.3545 36.3352 29.0429 36.1351 28.7488Z" fill="#FFAABD" fill-opacity="0.79"/>
<path fill-rule="evenodd" clip-rule="evenodd" d="M36.1351 31.8027C35.2222 33.145 32.38 34.1239 29.0153 34.1239C25.6505 34.1239 22.8084 33.145 21.8954 31.8027C21.6953 32.0968 21.5879 32.4084 21.5879 32.731C21.5879 34.5256 24.9133 35.9804 29.0153 35.9804C33.1173 35.9804 36.4426 34.5256 36.4426 32.731C36.4426 32.4084 36.3352 32.0968 36.1351 31.8027Z" fill="#FFAABD" fill-opacity="0.79"/>
</svg>

<svg width="47" height="47" fill="none" xmlns="http://www.w3.org/2000/svg"><circle cx="23.3" cy="23.808" r="23.148" fill="#FDEAEC"/><ellipse cx="28.198" cy="14.884" rx="7.427" ry="3.249" fill="#FF5379"/><path fill-rule="evenodd" clip-rule="evenodd" d="M35.318 17.205c-.913 1.342-3.755 2.321-7.12 2.321-3.364 0-6.206-.979-7.12-2.321-.2.294-.307.606-.307.928 0 1.795 3.325 3.25 7.427 3.25 4.102 0 7.428-1.455 7.428-3.25 0-.322-.108-.634-.308-.928z" fill="#FFAABD" fill-opacity=".79"/><path fill-rule="evenodd" clip-rule="evenodd" d="M35.318 20.26c-.913 1.341-3.755 2.32-7.12 2.32-3.364 0-6.206-.978-7.12-2.32-.2.293-.307.605-.307.927 0 1.795 3.325 3.25 7.427 3.25 4.102 0 7.428-1.455 7.428-3.25 0-.322-.108-.634-.308-.928z" fill="#FFAABD" fill-opacity=".79"/><ellipse cx="15.007" cy="22.116" rx="7.427" ry="3.249" fill="#FF5379"/><path fill-rule="evenodd" clip-rule="evenodd" d="M22.127 24.436c-.913 1.343-3.755 2.322-7.12 2.322-3.364 0-6.207-.98-7.12-2.322a1.64 1.64 0 00-.307.929c0 1.794 3.325 3.25 7.427 3.25 4.102 0 7.428-1.456 7.428-3.25 0-.323-.108-.634-.308-.928z" fill="#FFAABD" fill-opacity=".79"/><path fill-rule="evenodd" clip-rule="evenodd" d="M22.127 27.49c-.913 1.343-3.755 2.322-7.12 2.322-3.364 0-6.207-.98-7.12-2.321-.2.294-.307.605-.307.928 0 1.794 3.325 3.25 7.427 3.25 4.102 0 7.428-1.456 7.428-3.25 0-.323-.108-.634-.308-.928z" fill="#FFAABD" fill-opacity=".79"/><ellipse cx="29.015" cy="26.428" rx="7.427" ry="3.249" fill="#FF5379"/><path fill-rule="evenodd" clip-rule="evenodd" d="M36.135 28.749c-.913 1.342-3.755 2.321-7.12 2.321-3.364 0-6.207-.979-7.12-2.321-.2.294-.307.606-.307.928 0 1.795 3.325 3.25 7.427 3.25 4.102 0 7.428-1.455 7.428-3.25 0-.322-.108-.634-.308-.928z" fill="#FFAABD" fill-opacity=".79"/><path fill-rule="evenodd" clip-rule="evenodd" d="M36.135 31.803c-.913 1.342-3.755 2.32-7.12 2.32-3.364 0-6.207-.978-7.12-2.32-.2.294-.307.605-.307.928 0 1.795 3.325 3.25 7.427 3.25 4.102 0 7.428-1.455 7.428-3.25 0-.323-.108-.634-.308-.928z" fill="#FFAABD" fill-opacity=".79"/></svg>
